dist/images/nav-dictionary.svg

<svg width="24" height="24" viewBox="0 0 24 24" fill="none" xmlns="http://www.w3.org/2000/svg">
<path d="M13.1347 11.9342C13.1347 11.7872 13.084 11.3826 12.6788 11.3826H11.8387V12.478H12.6788C13.0798 12.478 13.1347 12.0814 13.1347 11.9342ZM6.66298 13.9124H7.83094L7.24694 11.8002L6.66298 13.9124ZM12.6387 13.4238H11.8387V15H12.6387C13.0653 15 13.2787 14.7584 13.2787 14.2749V14.1489C13.2787 13.6655 13.0653 13.4238 12.6387 13.4238ZM5.57213 3.9162H20.215C20.6486 3.9162 21 3.56995 21 3.14289V0.773307C21 0.346246 20.6486 0 20.2151 0H5.57213C4.70389 0 4 0.693437 4 1.54879V2.36741C4 3.22281 4.70389 3.9162 5.57213 3.9162Z" fill="#D5DFF2"/>
<path d="M5.22963 5.05111C4.33734 5.05111 3.5375 4.64247 3 4V22.9855C3 23.5458 3.44645 24 3.9972 24H20.0028C20.5536 24 21 23.5458 21 22.9855V5.05111H5.22963ZM8.87509 15.7056C8.70619 15.806 8.5309 15.8562 8.34917 15.8562C8.12576 15.8562 7.99331 15.7797 7.95177 15.6264L7.68687 14.6355H6.04276L5.77786 15.6264C5.73623 15.7797 5.60374 15.8562 5.38047 15.8562C5.19859 15.8562 5.02325 15.806 4.85454 15.7056C4.68569 15.6052 4.56882 15.4255 4.61689 15.2617L6.06615 10.4264C6.19944 10.0418 6.66866 10.0142 6.8609 10.0142C7.05304 10.0142 7.51825 10.0598 7.65569 10.4264L9.11274 15.2617C9.17355 15.454 9.04381 15.6052 8.87509 15.7056ZM13.9514 14.1519C13.9514 14.7438 13.8098 15.1758 13.5267 15.4479C13.2436 15.7201 12.8631 15.8562 12.3852 15.8562H10.6554C10.2412 15.8562 10.1256 15.5841 10.1256 15.4836V10.4423C10.1256 10.3207 10.2144 10.0618 10.6554 10.0618H12.2528C13.2916 10.0618 13.8111 10.5322 13.8111 11.4727C13.8111 12.1069 13.5903 12.5218 13.1488 12.7172C13.4137 12.8177 13.6137 12.9617 13.7488 13.1492C13.8838 13.3369 13.9514 13.6157 13.9514 13.9855V14.1519ZM16.9901 14.8257C17.509 14.8257 17.6418 14.3599 17.6758 14.033C17.6965 13.7847 17.8966 13.6604 18.2758 13.6604C18.7614 13.6604 18.8913 13.8813 18.8913 14.247C18.8913 14.7596 18.7083 15.1639 18.342 15.4598C17.9758 15.7558 17.507 15.9037 16.9356 15.9037C16.3797 15.9037 15.9291 15.753 15.5838 15.4518C15.2382 15.1506 15.0656 14.6777 15.0656 14.0329V11.9324C15.0656 11.2877 15.2382 10.8148 15.5838 10.5135C15.9292 10.2123 16.3798 10.0617 16.9356 10.0617C17.507 10.0617 17.9759 10.2018 18.342 10.4818C18.7082 10.762 18.8913 11.1477 18.8913 11.6391C18.8913 12.0177 18.7264 12.2257 18.2836 12.2257C17.894 12.2257 17.6914 12.1015 17.6758 11.8531C17.6603 11.3775 17.4291 11.1397 16.9824 11.1397C16.5148 11.1397 16.2811 11.404 16.2811 11.9324V14.0329C16.2811 14.5615 16.5174 14.8257 16.9901 14.8257Z" fill="#D5DFF2"/>
</svg>

<svg width="24" height="24" fill="none" xmlns="http://www.w3.org/2000/svg"><path d="M13.135 11.934c0-.147-.051-.551-.456-.551h-.84v1.095h.84c.4 0 .456-.397.456-.544zm-6.472 1.978h1.168L7.247 11.8l-.584 2.112zm5.976-.488h-.8V15h.8c.426 0 .64-.242.64-.725v-.126c0-.483-.214-.725-.64-.725zM5.572 3.916h14.643A.78.78 0 0021 3.143V.773A.78.78 0 0020.215 0H5.572A1.56 1.56 0 004 1.549v.818a1.56 1.56 0 001.572 1.55z" fill="#D5DFF2"/><path d="M5.23 5.051A2.902 2.902 0 013 4v18.985c0 .56.446 1.015.997 1.015h16.006c.55 0 .997-.454.997-1.015V5.051H5.23zm3.645 10.655c-.169.1-.344.15-.526.15-.223 0-.356-.076-.397-.23l-.265-.99H6.043l-.265.99c-.042.154-.174.23-.398.23-.181 0-.357-.05-.525-.15-.17-.1-.286-.28-.238-.444l1.45-4.836c.132-.384.602-.412.794-.412.192 0 .657.046.795.412l1.457 4.836c.06.192-.07.343-.238.444zm5.076-1.554c0 .592-.141 1.024-.424 1.296-.283.272-.664.408-1.142.408h-1.73c-.414 0-.53-.272-.53-.372v-5.042c0-.121.09-.38.53-.38h1.598c1.039 0 1.558.47 1.558 1.41 0 .635-.22 1.05-.662 1.245.265.1.465.245.6.432.135.188.202.467.202.837v.166zm3.04.674c.518 0 .65-.466.685-.793.02-.248.22-.373.6-.373.485 0 .615.221.615.587 0 .513-.183.917-.549 1.213-.366.296-.835.444-1.406.444-.556 0-1.007-.151-1.352-.452-.346-.301-.518-.774-.518-1.42v-2.1c0-.644.172-1.117.518-1.418.345-.302.796-.452 1.352-.452.571 0 1.04.14 1.406.42.366.28.55.666.55 1.157 0 .379-.166.587-.608.587-.39 0-.593-.125-.608-.373-.016-.476-.247-.713-.694-.713-.467 0-.7.264-.7.792v2.1c0 .53.235.794.708.794z" fill="#D5DFF2"/></svg>
